assets/Winking face with tongue/Flat/winking_face_with_tongue_flat.svg

<svg width="32" height="32" viewBox="0 0 32 32" fill="none" xmlns="http://www.w3.org/2000/svg">
<path d="M15.9989 29.9978C25.3333 29.9978 29.9978 23.7303 29.9978 15.9989C29.9978 8.26751 25.3333 2 15.9989 2C6.66443 2 2 8.26751 2 15.9989C2 23.7303 6.66443 29.9978 15.9989 29.9978Z" fill="#FFB02E"/>
<path d="M18.8062 17.1706C19.6962 16.8406 20.6562 16.6406 21.6662 16.6406C22.6762 16.6406 23.6363 16.8306 24.5163 17.1706C25.3663 16.3906 25.9062 15.2906 25.9062 14.0406C25.9062 11.6906 24.0062 9.79065 21.6562 9.79065C19.3063 9.79065 17.4062 11.6906 17.4062 14.0406C17.4162 15.2906 17.9562 16.4006 18.8062 17.1706Z" fill="white"/>
<path d="M15.9988 26C8.99878 26 8.99878 19 8.99878 19H22.9988C22.9988 19 22.9988 26 15.9988 26Z" fill="#BB1D80"/>
<path d="M16.0155 29C20.2155 29 20.8855 24.8 21.0155 23.75C21.1155 22.9 20.6655 22.47 20.1755 22.18C19.6855 21.89 18.2155 21.62 16.0155 21.62C13.8155 21.62 12.3555 21.89 11.8555 22.18C11.3555 22.47 10.9055 22.9 11.0155 23.75C11.1455 24.8 11.8155 29 16.0155 29Z" fill="#F70A8D"/>
<path d="M22.8588 20.43C22.9488 19.97 22.9988 19.49 22.9988 19C18.3388 19 11.8388 19 8.99878 19C8.99878 19.49 9.04878 19.96 9.13878 20.43H22.8588Z" fill="white"/>
<path d="M23.931 7.98761C24.5239 8.55049 24.8824 9.22774 25.0259 9.65811C25.1132 9.92009 25.3964 10.0617 25.6583 9.97434C25.9203 9.88702 26.0619 9.60386 25.9746 9.34189C25.7847 8.77226 25.3432 7.94951 24.6195 7.26239C23.8872 6.5672 22.8523 6 21.5002 6C21.2241 6 21.0002 6.22386 21.0002 6.5C21.0002 6.77614 21.2241 7 21.5002 7C22.5481 7 23.3466 7.4328 23.931 7.98761Z" fill="#402A32"/>
<path d="M10.5001 8C10.7763 8 11.0001 8.22386 11.0001 8.5C11.0001 8.77614 10.7763 9 10.5001 9C9.94104 9 9.15929 9.2157 8.45971 9.66948C7.76635 10.1192 7.1971 10.7736 6.98519 11.6213C6.91822 11.8892 6.64675 12.052 6.37885 11.9851C6.11095 11.9181 5.94807 11.6466 6.01505 11.3787C6.30314 10.2264 7.06722 9.38077 7.91552 8.83052C8.75761 8.2843 9.72587 8 10.5001 8Z" fill="#402A32"/>
<path d="M12.5921 15.0536C12.5424 14.8535 12.1902 14.1562 11.0939 14.1562C9.99758 14.1562 9.64533 14.8535 9.59563 15.0536C9.46247 15.5896 8.92002 15.9162 8.38403 15.783C7.84803 15.6498 7.52147 15.1074 7.65463 14.5714C7.87923 13.6673 8.89851 12.1562 11.0939 12.1562C13.2892 12.1562 14.3085 13.6673 14.5331 14.5714C14.6663 15.1074 14.3397 15.6498 13.8037 15.783C13.2677 15.9162 12.7253 15.5896 12.5921 15.0536Z" fill="#402A32"/>
<path d="M23.2087 14C23.2087 15.1046 22.3133 16 21.2087 16C20.1042 16 19.2087 15.1046 19.2087 14C19.2087 12.8954 20.1042 12 21.2087 12C22.3133 12 23.2087 12.8954 23.2087 14Z" fill="#402A32"/>
</svg>

<svg xmlns="http://www.w3.org/2000/svg" width="32" height="32" fill="none"><path fill="#FFB02E" d="M15.999 29.998c9.334 0 13.999-6.268 13.999-14 0-7.73-4.665-13.998-14-13.998C6.665 2 2 8.268 2 15.999c0 7.731 4.664 13.999 13.999 13.999Z"/><path fill="#fff" d="M18.806 17.17c.89-.33 1.85-.53 2.86-.53 1.01 0 1.97.19 2.85.53a4.22 4.22 0 0 0 1.39-3.13c0-2.35-1.9-4.25-4.25-4.25s-4.25 1.9-4.25 4.25a4.25 4.25 0 0 0 1.4 3.13Z"/><path fill="#BB1D80" d="M15.999 26c-7 0-7-7-7-7h14s0 7-7 7Z"/><path fill="#F70A8D" d="M16.015 29c4.2 0 4.87-4.2 5-5.25.1-.85-.35-1.28-.84-1.57-.49-.29-1.96-.56-4.16-.56s-3.66.27-4.16.56c-.5.29-.95.72-.84 1.57.13 1.05.8 5.25 5 5.25Z"/><path fill="#fff" d="M22.859 20.43c.09-.46.14-.94.14-1.43h-14c0 .49.05.96.14 1.43h13.72Z"/><path fill="#402A32" d="M23.931 7.988c.593.562.951 1.24 1.095 1.67a.5.5 0 1 0 .949-.316c-.19-.57-.632-1.392-1.356-2.08C23.887 6.567 22.852 6 21.5 6a.5.5 0 0 0 0 1c1.048 0 1.847.433 2.431.988ZM10.5 8a.5.5 0 1 1 0 1c-.559 0-1.34.216-2.04.67-.694.45-1.263 1.104-1.475 1.951a.5.5 0 0 1-.97-.242c.288-1.153 1.052-1.998 1.9-2.548C8.759 8.284 9.726 8 10.5 8ZM12.592 15.054c-.05-.2-.402-.898-1.498-.898s-1.449.697-1.498.898a1 1 0 1 1-1.941-.483c.224-.904 1.244-2.415 3.439-2.415 2.195 0 3.215 1.511 3.44 2.415a1 1 0 1 1-1.942.483ZM23.209 14a2 2 0 1 1-4 0 2 2 0 0 1 4 0Z"/></svg>
